static/images/mobile/copyright/wikipedia-wordmark-hi.svg

<?xml version="1.0" encoding="UTF-8"?><svg viewBox="0 0 78 18" xmlns="http://www.w3.org/2000/svg"><title>विकिपीडिया</title><g id="Artboard" fill="#54595D" fill-rule="evenodd"><path d="M71.353 5.282h5.265l.432.612.324.36v.162h-2.448V17.09h-.216l-.45-.342-.594-.378V6.416H70.03V17.09h-.216l-.45-.342-.612-.378s.09-1.548.09-3.42c-.378.468-1.278 1.08-2.538 1.08-2.052 0-3.312-1.476-4.32-3.546 2.322-.756 2.826-1.512 2.826-2.304 0-.72-.45-1.332-.828-1.764h-4.05v2.358c0 .306-.144.486-.72.486h-2.754c-1.062 0-1.602.486-1.602 1.224 0 .756.576 1.332 1.206 1.332.306-.09 1.962-.612 2.574-.612.684 0 1.116.216 1.566.846.396.576.594 1.206.594 1.782 0 1.458-1.278 2.52-3.168 2.52-2.034 0-3.492-1.152-4.392-2.106l.522-.54c.648.684 1.89 1.494 3.402 1.494 1.926 0 2.718-1.008 2.718-1.98 0-.54-.324-.882-.81-.882-.828 0-2.628.684-2.628.684-1.206-.216-2.556-1.71-2.556-3.204 0-1.026.792-1.746 2.16-1.746 1.224 0 2.484.144 2.664.162V6.416H50.896V17.09h-.216l-.45-.342-.594-.378V6.416H46V17.09h-.216l-.45-.342-.594-.378V6.416h-3.636V17.09h-.216l-.432-.342-.612-.378s.072-1.548.072-4.104c-.468.468-1.404 1.152-2.412 1.152-.72 0-1.368-.36-1.998-.828-.774-.576-1.134-1.08-1.134-2.034v-4.14h-6.984v.216c0 1.62-.09 2.79-.108 2.934a2.159 2.159 0 0 1 1.89-1.044c.828 0 1.692.504 2.34 1.26.54.612.936 1.404.936 2.214 0 1.602-1.098 2.502-2.502 2.502a3.27 3.27 0 0 1-.576-.054l-.756-1.08.072-.126c.216.054.522.09.738.09 1.152 0 1.962-.684 1.962-1.854 0-.99-.738-1.854-1.8-1.854-1.458 0-2.232 1.278-2.232 2.97v4.5h-.216l-.432-.342-.576-.36c.036-1.386.09-2.25.108-3.024-.27.432-.9 1.044-1.944 1.044-.81 0-1.692-.504-2.34-1.26-.522-.612-.936-1.422-.936-2.232 0-1.584 1.116-2.466 2.52-2.466.216 0 .36.018.576.072l.756 1.062-.054.144a3.99 3.99 0 0 0-.792-.108c-1.098 0-1.944.648-1.944 1.818 0 .972.72 1.89 1.8 1.89 1.476 0 2.25-1.242 2.25-2.952v-3.96h-7.542V17.09h-.216l-.45-.342-.594-.378V6.416H13.69V17.09h-.198l-.45-.342-.594-.378s.09-1.386.09-3.168c-.324.576-1.008 1.296-2.34 1.296-.99 0-1.836-.522-2.538-1.296-.576-.666-1.08-1.602-1.08-2.538 0-1.53 1.242-2.556 2.808-2.556.36 0 .792.054 1.098.198l.666 1.098-.108.144a3.773 3.773 0 0 0-1.224-.234c-1.188 0-2.178.684-2.178 1.98 0 .954.702 2.106 2.214 2.106 1.404 0 2.61-1.044 2.61-2.682V6.416H4.078V17.09h-.216l-.45-.342-.594-.378V6.416H.874l-.432-.612-.306-.36v-.162h2.952V5.21c-.468-.576-.756-1.332-.756-2.07C2.332 1.754 3.52.584 6.004.584c2.016 0 4.59.864 7.056 3.006l-.468.432C10.504 2.366 8.38 1.7 6.49 1.7c-1.872 0-2.988.81-2.988 1.998 0 .63.198 1.134.45 1.584h13.644V5.21c-.468-.576-.774-1.35-.774-2.088 0-1.386 1.152-2.538 3.474-2.538 1.908 0 4.266.882 6.588 3.006l-.468.432C24.472 2.366 22.528 1.7 20.782 1.7c-1.746 0-2.79.81-2.79 1.98 0 .63.216 1.152.468 1.602h26.712c-1.08-2.61-2.43-3.546-3.42-3.546-.81 0-1.224.54-1.224 1.206 0 .432.18.882.486 1.242l-.576.18c-.612-.414-1.08-1.17-1.08-1.944 0-.954.756-1.836 1.962-1.836 1.368 0 3.096 1.152 4.554 4.698h4.032V5.21c-.468-.576-.774-1.35-.774-2.088 0-1.386 1.152-2.538 3.474-2.538 1.908 0 4.266.882 6.588 3.006l-.468.432C56.782 2.366 54.838 1.7 53.092 1.7c-1.746 0-2.79.81-2.79 1.98 0 .63.216 1.152.468 1.602h20.583zM36.946 12.41c1.134 0 2.268-.792 2.934-1.782V6.416h-4.266v4.716c0 .72.504 1.278 1.332 1.278zm28.962.504c1.548 0 2.556-.882 2.88-1.512V6.416h-3.906c.648.738 1.098 1.548 1.098 2.232 0 .828-.342 1.548-2.25 2.448-.162.054-.198.144-.198.252 0 .432.666 1.566 2.376 1.566z" id="विकिपीडिया"/></g></svg>

<?xml version="1.0" encoding="UTF-8"?>
<svg  viewBox="0 0 78 18" version="1.1" xmlns="http://www.w3.org/2000/svg" xmlns:xlink="http://www.w3.org/1999/xlink">
    <title>विकिपीडिया</title>

        <g id="Artboard" fill="#54595D" stroke="none" fill-rule="evenodd">
            <path d="M71.353,5.282 L76.618,5.282 L77.05,5.894 L77.374,6.254 L77.374,6.416 L74.926,6.416 L74.926,17.09 L74.71,17.09 L74.26,16.748 L73.666,16.37 L73.666,6.416 L72.091,6.416 L70.03,6.416 L70.03,17.09 L69.814,17.09 L69.364,16.748 L68.752,16.37 C68.752,16.37 68.842,14.822 68.842,12.95 C68.464,13.418 67.564,14.03 66.304,14.03 C64.252,14.03 62.992,12.554 61.984,10.484 C64.306,9.728 64.81,8.972 64.81,8.18 C64.81,7.46 64.36,6.848 63.982,6.416 L61.84,6.416 L59.932,6.416 L59.932,8.774 C59.932,9.08 59.788,9.26 59.212,9.26 L56.458,9.26 C55.396,9.26 54.856,9.746 54.856,10.484 C54.856,11.24 55.432,11.816 56.062,11.816 C56.368,11.726 58.024,11.204 58.636,11.204 C59.32,11.204 59.752,11.42 60.202,12.05 C60.598,12.626 60.796,13.256 60.796,13.832 C60.796,15.29 59.518,16.352 57.628,16.352 C55.594,16.352 54.136,15.2 53.236,14.246 L53.758,13.706 C54.406,14.39 55.648,15.2 57.16,15.2 C59.086,15.2 59.878,14.192 59.878,13.22 C59.878,12.68 59.554,12.338 59.068,12.338 C58.24,12.338 56.44,13.022 56.44,13.022 C55.234,12.806 53.884,11.312 53.884,9.818 C53.884,8.792 54.676,8.072 56.044,8.072 C57.268,8.072 58.528,8.216 58.708,8.234 L58.708,6.416 L52.966,6.416 L50.896,6.416 L50.896,17.09 L50.68,17.09 L50.23,16.748 L49.636,16.37 L49.636,6.416 L48.07,6.416 L46,6.416 L46,17.09 L45.784,17.09 L45.334,16.748 L44.74,16.37 L44.74,6.416 L43.174,6.416 L41.104,6.416 L41.104,17.09 L40.888,17.09 L40.456,16.748 L39.844,16.37 C39.844,16.37 39.916,14.822 39.916,12.266 C39.448,12.734 38.512,13.418 37.504,13.418 C36.784,13.418 36.136,13.058 35.506,12.59 C34.732,12.014 34.372,11.51 34.372,10.556 L34.372,6.416 L33.31,6.416 L27.388,6.416 L27.388,6.632 C27.388,8.252 27.298,9.422 27.28,9.566 C27.532,9.134 28.144,8.522 29.17,8.522 C29.998,8.522 30.862,9.026 31.51,9.782 C32.05,10.394 32.446,11.186 32.446,11.996 C32.446,13.598 31.348,14.498 29.944,14.498 C29.746,14.498 29.584,14.48 29.368,14.444 L28.612,13.364 L28.684,13.238 C28.9,13.292 29.206,13.328 29.422,13.328 C30.574,13.328 31.384,12.644 31.384,11.474 C31.384,10.484 30.646,9.62 29.584,9.62 C28.126,9.62 27.352,10.898 27.352,12.59 L27.352,17.09 L27.136,17.09 L26.704,16.748 L26.128,16.388 C26.164,15.002 26.218,14.138 26.236,13.364 C25.966,13.796 25.336,14.408 24.292,14.408 C23.482,14.408 22.6,13.904 21.952,13.148 C21.43,12.536 21.016,11.726 21.016,10.916 C21.016,9.332 22.132,8.45 23.536,8.45 C23.752,8.45 23.896,8.468 24.112,8.522 L24.868,9.584 L24.814,9.728 C24.58,9.674 24.256,9.62 24.022,9.62 C22.924,9.62 22.078,10.268 22.078,11.438 C22.078,12.41 22.798,13.328 23.878,13.328 C25.354,13.328 26.128,12.086 26.128,10.376 L26.128,6.416 L20.656,6.416 L18.586,6.416 L18.586,17.09 L18.37,17.09 L17.92,16.748 L17.326,16.37 L17.326,6.416 L15.76,6.416 L13.69,6.416 L13.69,17.09 L13.492,17.09 L13.042,16.748 L12.448,16.37 C12.448,16.37 12.538,14.984 12.538,13.202 C12.214,13.778 11.53,14.498 10.198,14.498 C9.208,14.498 8.362,13.976 7.66,13.202 C7.084,12.536 6.58,11.6 6.58,10.664 C6.58,9.134 7.822,8.108 9.388,8.108 C9.748,8.108 10.18,8.162 10.486,8.306 L11.152,9.404 L11.044,9.548 C10.648,9.404 10.198,9.314 9.82,9.314 C8.632,9.314 7.642,9.998 7.642,11.294 C7.642,12.248 8.344,13.4 9.856,13.4 C11.26,13.4 12.466,12.356 12.466,10.718 L12.466,6.416 L6.148,6.416 L4.078,6.416 L4.078,17.09 L3.862,17.09 L3.412,16.748 L2.818,16.37 L2.818,6.416 L0.874,6.416 L0.442,5.804 L0.136,5.444 L0.136,5.282 L3.088,5.282 L3.088,5.21 C2.62,4.634 2.332,3.878 2.332,3.14 C2.332,1.754 3.52,0.584 6.004,0.584 C8.02,0.584 10.594,1.448 13.06,3.59 L12.592,4.022 C10.504,2.366 8.38,1.7 6.49,1.7 C4.618,1.7 3.502,2.51 3.502,3.698 C3.502,4.328 3.7,4.832 3.952,5.282 L5.401,5.282 L15.022,5.282 L17.596,5.282 L17.596,5.21 C17.128,4.634 16.822,3.86 16.822,3.122 C16.822,1.736 17.974,0.584 20.296,0.584 C22.204,0.584 24.562,1.466 26.884,3.59 L26.416,4.022 C24.472,2.366 22.528,1.7 20.782,1.7 C19.036,1.7 17.992,2.51 17.992,3.68 C17.992,4.31 18.208,4.832 18.46,5.282 L19.909,5.282 L32.563,5.282 L42.427,5.282 L45.172,5.282 C44.092,2.672 42.742,1.736 41.752,1.736 C40.942,1.736 40.528,2.276 40.528,2.942 C40.528,3.374 40.708,3.824 41.014,4.184 L40.438,4.364 C39.826,3.95 39.358,3.194 39.358,2.42 C39.358,1.466 40.114,0.584 41.32,0.584 C42.688,0.584 44.416,1.736 45.874,5.282 L47.323,5.282 L49.906,5.282 L49.906,5.21 C49.438,4.634 49.132,3.86 49.132,3.122 C49.132,1.736 50.284,0.584 52.606,0.584 C54.514,0.584 56.872,1.466 59.194,3.59 L58.726,4.022 C56.782,2.366 54.838,1.7 53.092,1.7 C51.346,1.7 50.302,2.51 50.302,3.68 C50.302,4.31 50.518,4.832 50.77,5.282 L52.219,5.282 L61.093,5.282 L71.353,5.282 Z M36.946,12.41 C38.08,12.41 39.214,11.618 39.88,10.628 L39.88,6.416 L35.614,6.416 L35.614,11.132 C35.614,11.852 36.118,12.41 36.946,12.41 Z M65.908,12.914 C67.456,12.914 68.464,12.032 68.788,11.402 L68.788,6.416 L64.882,6.416 C65.53,7.154 65.98,7.964 65.98,8.648 C65.98,9.476 65.638,10.196 63.73,11.096 C63.568,11.15 63.532,11.24 63.532,11.348 C63.532,11.78 64.198,12.914 65.908,12.914 Z" id="विकिपीडिया"></path>

    </g>
</svg>
